src/assets/images/press/01.svg

<svg width="197" height="30" viewBox="0 0 197 30" fill="none" xmlns="http://www.w3.org/2000/svg">
<g clip-path="url(#clip0_2_1431)">
<path d="M29.6884 0.155762V10.0519H19.7923V29.8442H9.89613V10.0519H0V0.155762H29.6884Z" fill="#0A9E01"/>
<path d="M59.3762 0.155762H39.584V10.0519H59.3762V0.155762Z" fill="#0A9E01"/>
<path d="M59.3759 19.9481V29.8443H29.6875V10.052H39.5836V19.9481H59.3759Z" fill="#0A9E01"/>
<path d="M78.0792 7.08313H64.4885V11.0086H69.0407V23.3128H73.5269V11.0086H78.0792V7.08313Z" fill="#0A9E01"/>
<path d="M83.1924 10.8766C79.9927 10.8766 77.6176 13.0207 77.6176 17.2431C77.6176 20.9706 79.6298 23.5766 83.2914 23.5766C85.2046 23.5766 86.755 23.0818 88.2395 22.1912L86.6561 19.5192C85.4356 20.146 84.5779 20.3769 83.4893 20.3769C82.3678 20.3769 81.5761 19.7831 81.4111 18.4306H88.5693C88.6023 18.2327 88.6023 17.9688 88.6023 17.606C88.6353 13.0867 86.5571 10.8766 83.1924 10.8766ZM81.4771 15.8247C81.6091 14.6041 82.1368 13.9774 83.0935 13.9774C84.314 13.9774 84.7428 14.6041 84.9408 15.8247H81.4771Z" fill="#0A9E01"/>
<path d="M96.5519 20.179C95.4304 20.179 94.8366 19.1893 94.8366 17.2431C94.8366 15.3298 95.3644 14.2413 96.4529 14.2413C97.3436 14.2413 97.7395 14.7361 98.3332 15.8247L101.203 13.6475C100.148 11.9322 98.828 10.8766 96.5189 10.8766C92.6264 10.8766 90.7132 13.4496 90.7132 17.1771C90.7132 21.2675 92.8574 23.5436 96.42 23.5436C98.5641 23.5436 99.8836 22.719 101.302 20.6408L98.6631 18.5626C97.8714 19.7501 97.3436 20.179 96.5519 20.179Z" fill="#0A9E01"/>
<path d="M110.935 10.8766C109.484 10.8766 108.626 11.3714 107.867 11.9322V6.42334L103.678 8.10568V23.3457H107.867V16.3854C107.867 14.868 108.395 14.4392 109.286 14.4392C110.143 14.4392 110.671 14.868 110.671 16.4184V23.3457H114.861V15.8906C114.861 12.6909 113.574 10.8766 110.935 10.8766Z" fill="#0A9E01"/>
<path d="M124.92 19.6511C122.974 19.6511 122.182 17.6718 122.182 15.1978C122.182 12.6248 123.007 10.7446 124.887 10.7446C126.372 10.7446 126.932 11.7012 127.493 13.2186L131.584 11.6022C130.462 8.53442 128.879 6.81909 124.887 6.81909C120.533 6.81909 117.465 9.98585 117.465 15.1978C117.465 20.0139 120.038 23.5765 124.854 23.5765C128.714 23.5765 130.528 21.4984 131.616 19.3872L127.823 17.375C126.932 18.8924 126.339 19.6511 124.92 19.6511Z" fill="black"/>
<path d="M138.346 12.0313V11.1406H134.156V23.3128H138.346V16.6824C138.346 15.198 138.973 14.7032 139.995 14.7032C140.82 14.7032 141.414 15.132 141.941 15.7258L142.931 11.4045C142.436 11.1076 141.842 10.8767 140.952 10.8767C139.863 10.8767 139.039 11.3385 138.346 12.0313Z" fill="black"/>
<path d="M151.871 18.1009C151.871 19.6183 151.343 20.0471 150.485 20.0471C149.628 20.0471 149.1 19.6183 149.1 18.0679V11.1406H144.91V18.5957C144.91 21.7955 146.197 23.5768 148.869 23.5768C150.287 23.5768 151.178 23.082 151.904 22.5212V23.3459H156.093V11.1736H151.904L151.871 18.1009Z" fill="black"/>
<path d="M166.353 10.8766C164.901 10.8766 164.044 11.3714 163.285 11.9322V11.1075H159.096V23.2797H163.285V16.3195C163.285 14.8021 163.813 14.3732 164.704 14.3732C165.561 14.3732 166.089 14.8021 166.089 16.3524V23.2797H170.278V15.8247C170.278 12.6909 169.025 10.8766 166.353 10.8766Z" fill="black"/>
<path d="M178.591 20.179C177.469 20.179 176.875 19.1893 176.875 17.2431C176.875 15.3298 177.403 14.2413 178.459 14.2413C179.349 14.2413 179.745 14.7361 180.339 15.8247L183.209 13.6475C182.153 11.9322 180.834 10.8766 178.525 10.8766C174.632 10.8766 172.719 13.4496 172.719 17.1771C172.719 21.2675 174.863 23.5436 178.426 23.5436C180.57 23.5436 181.889 22.719 183.308 20.6408L180.669 18.5626C179.943 19.7501 179.382 20.179 178.591 20.179Z" fill="black"/>
<path d="M192.974 10.8766C191.523 10.8766 190.665 11.3714 189.906 11.9322V6.42334L185.717 8.10568V23.3457H189.906V16.3854C189.906 14.868 190.434 14.4392 191.325 14.4392C192.182 14.4392 192.71 14.868 192.71 16.4184V23.3457H196.9V15.8906C196.933 12.6909 195.646 10.8766 192.974 10.8766Z" fill="black"/>
</g>
<defs>
<clipPath id="clip0_2_1431">
<rect width="196.9" height="29.6884" fill="white" transform="translate(0 0.155762)"/>
</clipPath>
</defs>
</svg>

<svg width="197" height="30" fill="none" xmlns="http://www.w3.org/2000/svg"><g clip-path="url(#clip0_2_1431)"><path d="M29.688.156v9.896h-9.896v19.792H9.896V10.052H0V.156h29.688zm29.688 0H39.584v9.896h19.792V.156z" fill="#0A9E01"/><path d="M59.376 19.948v9.896H29.688V10.052h9.896v9.896h19.792zM78.08 7.083H64.488v3.926h4.552v12.304h4.486V11.009h4.552V7.083zm5.112 3.794c-3.2 0-5.574 2.144-5.574 6.366 0 3.728 2.012 6.334 5.673 6.334 1.914 0 3.464-.495 4.949-1.386l-1.584-2.672c-1.22.627-2.078.858-3.167.858-1.121 0-1.913-.594-2.078-1.946h7.158c.033-.198.033-.462.033-.825.033-4.52-2.045-6.73-5.41-6.73zm-1.715 4.948c.132-1.22.66-1.848 1.617-1.848 1.22 0 1.649.627 1.847 1.848h-3.464zm15.075 4.354c-1.122 0-1.715-.99-1.715-2.936 0-1.913.527-3.002 1.616-3.002.89 0 1.287.495 1.88 1.584l2.87-2.177c-1.055-1.716-2.375-2.771-4.684-2.771-3.893 0-5.806 2.573-5.806 6.3 0 4.09 2.144 6.367 5.707 6.367 2.144 0 3.464-.825 4.882-2.903l-2.639-2.078c-.792 1.187-1.32 1.616-2.111 1.616zm14.383-9.302c-1.451 0-2.309.494-3.068 1.055V6.423l-4.189 1.683v15.24h4.189v-6.96c0-1.518.528-1.947 1.419-1.947.857 0 1.385.429 1.385 1.98v6.927h4.19V15.89c0-3.2-1.287-5.014-3.926-5.014z" fill="#0A9E01"/><path d="M124.92 19.651c-1.946 0-2.738-1.98-2.738-4.453 0-2.573.825-4.453 2.705-4.453 1.485 0 2.045.956 2.606 2.474l4.091-1.617c-1.122-3.068-2.705-4.783-6.697-4.783-4.354 0-7.422 3.167-7.422 8.379 0 4.816 2.573 8.378 7.389 8.378 3.86 0 5.674-2.078 6.762-4.189l-3.793-2.012c-.891 1.517-1.484 2.276-2.903 2.276zm13.426-7.62v-.89h-4.19v12.172h4.19v-6.63c0-1.485.627-1.98 1.649-1.98.825 0 1.419.429 1.946 1.023l.99-4.322c-.495-.296-1.089-.527-1.979-.527-1.089 0-1.913.461-2.606 1.154zm13.525 6.069c0 1.518-.528 1.947-1.386 1.947-.857 0-1.385-.429-1.385-1.98v-6.926h-4.19v7.455c0 3.2 1.287 4.98 3.959 4.98 1.418 0 2.309-.494 3.035-1.055v.825h4.189V11.174h-4.189l-.033 6.927zm14.482-7.223c-1.452 0-2.309.494-3.068 1.055v-.825h-4.189V23.28h4.189v-6.96c0-1.518.528-1.947 1.419-1.947.857 0 1.385.43 1.385 1.98v6.927h4.189v-7.455c0-3.134-1.253-4.948-3.925-4.948zm12.238 9.302c-1.122 0-1.716-.99-1.716-2.936 0-1.913.528-3.002 1.584-3.002.89 0 1.286.495 1.88 1.584l2.87-2.177c-1.056-1.716-2.375-2.771-4.684-2.771-3.893 0-5.806 2.573-5.806 6.3 0 4.09 2.144 6.367 5.707 6.367 2.144 0 3.463-.825 4.882-2.903l-2.639-2.078c-.726 1.187-1.287 1.616-2.078 1.616zm14.383-9.302c-1.451 0-2.309.494-3.068 1.055V6.423l-4.189 1.683v15.24h4.189v-6.96c0-1.518.528-1.947 1.419-1.947.857 0 1.385.429 1.385 1.98v6.927h4.19V15.89c.033-3.2-1.254-5.014-3.926-5.014z" fill="#000"/></g><defs><clipPath id="clip0_2_1431"><path fill="#fff" transform="translate(0 .156)" d="M0 0h196.9v29.688H0z"/></clipPath></defs></svg>
